assets/2023/icons/rustFile_dark.svg

<svg width="16" height="16" viewBox="0 0 16 16" fill="none" xmlns="http://www.w3.org/2000/svg">
<path fill-rule="evenodd" clip-rule="evenodd" d="M15 8C15 11.866 11.866 15 8 15C4.13401 15 1 11.866 1 8C1 4.13401 4.13401 1 8 1C11.866 1 15 4.13401 15 8ZM13.1998 10.9957C12.163 12.7915 10.2226 14 8 14C5.7792 14 3.84021 12.7935 2.80276 11.0001H8.06395C8.11134 11.0001 8.14294 10.9837 8.14294 10.9402V9.45061C8.14294 9.40726 8.11134 9.39864 8.06395 9.39864H6.83944V8.45438H8.16383C8.28473 8.45438 8.81022 8.48913 8.97825 9.16472C8.99704 9.23894 9.02386 9.37285 9.05417 9.52422C9.10873 9.79666 9.17463 10.1257 9.2254 10.2648C9.30412 10.5074 9.62465 11.0001 9.96618 11.0001L12.1253 10.9957H13.1998ZM13.8423 9.37264H11.9086C11.6406 9.37264 11.3378 9.2406 11.2773 8.89856C11.1597 8.23319 10.8995 8.02164 10.5005 7.7055L10.4727 7.68344C10.9877 7.35446 11.5237 6.86914 11.5237 6.21953C11.5237 5.51808 11.0456 5.07626 10.7197 4.85958C10.2625 4.55646 9.75626 4.49573 9.6197 4.49573L3.12906 4.49581C4.2185 2.98411 5.99433 2 8 2C11.3137 2 14 4.68629 14 8C14 8.47228 13.9454 8.93181 13.8423 9.37264ZM2.32225 6.05506C2.11337 6.66499 2 7.31926 2 8C2 8.463 2.05244 8.91376 2.15172 9.34665H4.5369V6.05498L2.32225 6.05506ZM6.83972 6.08973V7.05996L8.44271 7.05983C8.78412 7.05983 9.1993 6.93864 9.1993 6.60064C9.1993 6.19355 8.658 6.08973 8.5687 6.08973H6.83972Z" fill="#C77D55"/>
</svg>

<svg xmlns="http://www.w3.org/2000/svg" width="16" height="16" fill="none" viewBox="0 0 16 16"><path fill="#C77D55" fill-rule="evenodd" d="M15 8A7 7 0 1 1 1 8a7 7 0 0 1 14 0m-1.8 2.996A6 6 0 0 1 8 14a6 6 0 0 1-5.197-3h5.261c.047 0 .079-.016.079-.06V9.45c0-.043-.032-.051-.08-.051H6.84v-.945h1.325c.12 0 .646.035.814.71.019.075.046.209.076.36.055.273.12.602.171.74.08.243.4.736.741.736l2.16-.004zm.642-1.623H11.91c-.268 0-.571-.132-.632-.474-.117-.666-.377-.877-.776-1.193l-.028-.023c.515-.329 1.05-.814 1.05-1.463 0-.702-.477-1.144-.803-1.36a2.3 2.3 0 0 0-1.1-.364H3.13a6 6 0 0 1 10.713 4.877M2.322 6.055a6 6 0 0 0-.17 3.292h2.385V6.055zm4.518.035v.97h1.603c.341 0 .756-.121.756-.46 0-.406-.541-.51-.63-.51z" clip-rule="evenodd"/></svg>
